icons/film-fill.svg

<svg viewBox="0 0 24 24" fill="currentColor" xmlns="http://www.w3.org/2000/svg">
    <path d="M2 3.9934C2 3.44476 2.45531 3 2.9918 3H21.0082C21.556 3 22 3.44495 22 3.9934V20.0066C22 20.5552 21.5447 21 21.0082 21H2.9918C2.44405 21 2 20.5551 2 20.0066V3.9934ZM4 5V7H6V5H4ZM18 5V7H20V5H18ZM4 9V11H6V9H4ZM18 9V11H20V9H18ZM4 13V15H6V13H4ZM18 13V15H20V13H18ZM4 17V19H6V17H4ZM18 17V19H20V17H18Z"/>
</svg>

<svg xmlns="http://www.w3.org/2000/svg" viewBox="0 0 24 24">
    <g>
        <path fill="none" d="M0 0h24v24H0z"/>
        <path d="M2 3.993A1 1 0 0 1 2.992 3h18.016c.548 0 .992.445.992.993v16.014a1 1 0 0 1-.992.993H2.992A.993.993 0 0 1 2 20.007V3.993zM4 5v2h2V5H4zm14 0v2h2V5h-2zM4 9v2h2V9H4zm14 0v2h2V9h-2zM4 13v2h2v-2H4zm14 0v2h2v-2h-2zM4 17v2h2v-2H4zm14 0v2h2v-2h-2z"/>
    </g>
</svg>
